www/assets/icons/follow_the_signs.svg

<svg xmlns="http://www.w3.org/2000/svg" width="24" height="24" viewBox="0 0 24 24" fill='currentColor'><path d="M9.5 5.25c1.1 0 2-.9 2-2s-.9-2-2-2-2 .9-2 2 .9 2 2 2m-3.75 3.4L3 22.75h2.1l1.75-8 2.15 2v6h2V15.2l-2.05-2.05.6-3c1.3 1.6 3.25 2.6 5.45 2.6v-2c-1.85 0-3.45-1-4.35-2.45L9.7 6.7c-.35-.6-1-.95-1.7-.95q-.375 0-.75.15L2 8.05v4.7h2V9.4zM13 1.75v7h3.75v14h1.5v-14H22v-7zm5.01 6V6H14.5V4.5h3.51V2.75l2.49 2.5z"/></svg>

<svg width="24" height="24" viewBox="0 0 24 24" xmlns="http://www.w3.org/2000/svg" fill='currentColor'><path d="M9.5 5.25C10.6 5.25 11.5 4.35 11.5 3.25C11.5 2.15 10.6 1.25 9.5 1.25C8.4 1.25 7.5 2.15 7.5 3.25C7.5 4.35 8.4 5.25 9.5 5.25ZM5.75 8.65L3 22.75H5.1L6.85 14.75L9 16.75V22.75H11V15.2L8.95 13.15L9.55 10.15C10.85 11.75 12.8 12.75 15 12.75V10.75C13.15 10.75 11.55 9.75 10.65 8.3L9.7 6.7C9.35 6.1 8.7 5.75 8 5.75C7.75 5.75 7.5 5.8 7.25 5.9L2 8.05V12.75H4V9.4L5.75 8.65ZM13 1.75V8.75H16.75V22.75H18.25V8.75H22V1.75H13ZM18.01 7.75V6H14.5V4.5H18.01V2.75L20.5 5.25L18.01 7.75Z"/></svg>
